src/images_karasa_jaga_svg/cmd/32/symbolshapes.heart.svg

<svg height="32" viewBox="0 0 32 32" width="32" xmlns="http://www.w3.org/2000/svg" xmlns:xlink="http://www.w3.org/1999/xlink"><linearGradient id="a" gradientUnits="userSpaceOnUse" x1="83.777969" x2="81.958298" y1="128" y2="0"><stop offset="0" stop-color="#fff"/><stop offset=".55595475" stop-color="#fff"/><stop offset=".83333331" stop-color="#f1f1f1"/><stop offset=".89999998" stop-color="#eaeaea"/><stop offset="1" stop-color="#dfdfdf"/></linearGradient><path d="m32.145503 13.479139c-6.978892-.09138-13.597164 2.509328-18.674192 8.443576-10.9175103 13.197723-9.6139442 29.751881 1.367192 49.026932 5.916069 12.615837 23.998135 32.987713 48.357689 44.015693l.803808.36781.803809-.36781c24.359778-11.02793 42.441581-31.399766 48.357681-44.015693 10.98115-19.275051 12.28471-35.829209 1.3672-49.026932-10.15405-11.868497-26.479524-10.403459-39.503237-.733834l-11.012893 9.554197h-.02512l-11.012892-9.554197c-6.511857-4.834813-13.850154-7.618361-20.829045-7.709742z" fill="url(#a)" fill-rule="evenodd" stroke="#507dbe" stroke-opacity=".729412" stroke-width="4" transform="scale(.25)"/></svg>

<?xml version="1.0" encoding="UTF-8" standalone="no"?>
<!-- Created with Inkscape (http://www.inkscape.org/) -->

<svg
   xmlns:dc="http://purl.org/dc/elements/1.1/"
   xmlns:cc="http://creativecommons.org/ns#"
   xmlns:rdf="http://www.w3.org/1999/02/22-rdf-syntax-ns#"
   xmlns:svg="http://www.w3.org/2000/svg"
   xmlns="http://www.w3.org/2000/svg"
   xmlns:xlink="http://www.w3.org/1999/xlink"
   xmlns:sodipodi="http://sodipodi.sourceforge.net/DTD/sodipodi-0.dtd"
   xmlns:inkscape="http://www.inkscape.org/namespaces/inkscape"
   version="1.1"
   id="svg2"
   width="128"
   height="128"
   viewBox="0 0 128 128"
   sodipodi:docname="symbolshapes.heart.svg"
   inkscape:export-filename="/home/rizmut/Dokumen/Rizmut/Github/libreoffice-style-karasa-jaga/build/images_karasa_jaga/cmd/32/symbolshapes.heart.png"
   inkscape:export-xdpi="24"
   inkscape:export-ydpi="24"
   inkscape:version="0.92.3 (unknown)">
  <metadata
     id="metadata8">
    <rdf:RDF>
      <cc:Work
         rdf:about="">
        <dc:format>image/svg+xml</dc:format>
        <dc:type
           rdf:resource="http://purl.org/dc/dcmitype/StillImage" />
        <dc:title />
      </cc:Work>
    </rdf:RDF>
  </metadata>
  <defs
     id="defs6">
    <linearGradient
       inkscape:collect="always"
       xlink:href="#linearGradient3369"
       id="linearGradient2118"
       x1="87.013062"
       y1="133.63248"
       x2="85.032219"
       y2="-5.7042069"
       gradientUnits="userSpaceOnUse"
       gradientTransform="matrix(0.9186382,0,0,0.9186382,3.8444487,5.2401022)" />
    <linearGradient
       id="linearGradient3369">
      <stop
         id="stop3372"
         offset="0"
         style="stop-color:#ffffff;stop-opacity:1;" />
      <stop
         style="stop-color:#ffffff;stop-opacity:1;"
         offset="0.55595475"
         id="stop3374" />
      <stop
         style="stop-color:#f1f1f1;stop-opacity:1;"
         offset="0.83333331"
         id="stop3376" />
      <stop
         id="stop3378"
         offset="0.89999998"
         style="stop-color:#eaeaea;stop-opacity:1;" />
      <stop
         id="stop3384"
         offset="1"
         style="stop-color:#dfdfdf;stop-opacity:1;" />
    </linearGradient>
  </defs>
  <sodipodi:namedview
     pagecolor="#ffffff"
     bordercolor="#666666"
     borderopacity="1"
     objecttolerance="10"
     gridtolerance="10"
     guidetolerance="10"
     inkscape:pageopacity="0"
     inkscape:pageshadow="2"
     inkscape:window-width="1366"
     inkscape:window-height="706"
     id="namedview4"
     showgrid="false"
     inkscape:snap-page="true"
     inkscape:snap-global="true"
     inkscape:zoom="0.6123572"
     inkscape:cx="293.4626"
     inkscape:cy="-62.232519"
     inkscape:window-x="0"
     inkscape:window-y="0"
     inkscape:window-maximized="1"
     inkscape:current-layer="svg2">
    <inkscape:grid
       type="xygrid"
       id="grid837" />
  </sodipodi:namedview>
  <path
     style="fill:url(#linearGradient2118);fill-opacity:1;fill-rule:evenodd;stroke:#507dbe;stroke-width:4;stroke-linecap:butt;stroke-linejoin:miter;stroke-miterlimit:4;stroke-dasharray:none;stroke-opacity:0.72941176"
     d="M 32.145503,13.479139 C 25.166611,13.387759 18.548339,15.988467 13.471311,21.922715 2.5538007,35.120438 3.8573668,51.674596 14.838503,70.949647 20.754572,83.565484 38.836638,103.93736 63.196192,114.96534 L 64,115.33315 64.803809,114.96534 C 89.163587,103.93741 107.24539,83.565574 113.16149,70.949647 124.14264,51.674596 125.4462,35.120438 114.52869,21.922715 104.37464,10.054218 88.049166,11.519256 75.025453,21.188881 L 64.01256,30.743078 H 63.98744 L 52.974548,21.188881 C 46.462691,16.354068 39.124394,13.57052 32.145503,13.479139 Z"
     id="path2107"
     inkscape:connector-curvature="0"
     sodipodi:nodetypes="scccccccccccs" />
</svg>
